icon/lg/solarwinds.svg

<?xml version="1.0" encoding="UTF-8"?>
<svg viewBox="0 0 512 117" version="1.1" xmlns="http://www.w3.org/2000/svg" xmlns:xlink="http://www.w3.org/1999/xlink" preserveAspectRatio="xMidYMid" height="1em" width="1em">
  <g>
    <path d="M13.3907692,116.578462 C8.90328869,116.644376 4.4453972,115.841956 0.262564103,114.215385 L0.262564103,107.388718 C4.52763729,108.7484 8.9308241,109.629037 13.3907692,110.014359 C17.5917949,110.014359 22.0553846,109.226667 22.0553846,103.975385 C22.0553846,100.036923 19.1671795,98.9866667 15.4912821,97.9364103 L11.8153846,97.1487179 C7.35179487,95.8358974 0,93.9979487 0,85.0707692 C0,75.0933333 8.13948718,72.7302564 16.5415385,72.7302564 C20.6111858,72.575885 24.6596992,73.3855877 28.3569231,75.0933333 L28.3569231,81.6574359 C24.5451425,79.9891713 20.4393322,79.0966039 16.2789744,79.0317949 C11.0276923,79.0317949 7.61435897,80.0820513 7.61435897,84.545641 C7.61435897,88.4841026 10.7651282,89.534359 14.4410256,90.3220513 L18.3794872,91.6348718 C23.3682051,92.9476923 29.4071795,95.8358974 29.4071795,103.712821 C29.6697436,113.690256 22.3179487,116.578462 13.3907692,116.578462 M58.0266667,116.578462 C65.9035897,116.578462 77.7189744,114.215385 77.7189744,94.5230769 C77.7189744,75.0933333 65.6410256,72.4676923 58.0266667,72.4676923 C49.8871795,72.4676923 38.334359,75.6184615 38.334359,94.5230769 C38.334359,113.952821 49.6246154,116.578462 58.0266667,116.578462 M58.0266667,78.5066667 C62.4902564,78.5066667 69.8420513,79.5569231 69.8420513,94.5230769 C69.8420513,108.964103 61.9651282,110.539487 58.0266667,110.539487 C54.8758974,110.539487 46.2112821,109.489231 46.2112821,94.5230769 C46.2112821,79.8194872 53.5630769,78.5066667 58.0266667,78.5066667 M87.9589744,115.790769 L95.8358974,115.790769 L95.8358974,59.3394872 L87.9589744,59.3394872 L87.9589744,115.790769 Z M142.309744,115.790769 L142.309744,87.1712821 C142.309744,76.1435897 136.008205,72.7302564 126.555897,72.7302564 C121.093322,72.7924027 115.679693,73.7686308 110.539487,75.6184615 L110.539487,82.1825641 C115.280227,80.5322494 120.230329,79.5599078 125.243077,79.294359 C130.756923,79.294359 133.907692,80.6071795 133.907692,86.1210256 L133.907692,89.7969231 L124.455385,89.7969231 C117.628718,89.7969231 106.601026,92.16 106.601026,103.712821 C106.601026,114.477949 113.690256,116.841026 120.254359,116.841026 C125.578644,116.817748 130.640464,114.525604 134.170256,110.539487 L134.957949,116.053333 L142.309744,115.790769 L142.309744,115.790769 Z M134.432821,104.763077 C134.432821,104.763077 128.65641,110.276923 122.88,110.276923 C118.678974,110.276923 115.265641,108.701538 115.265641,103.187692 C115.265641,96.3610256 119.466667,94.5230769 126.818462,94.2605128 L134.432821,94.2605128 L134.432821,104.763077 Z M171.191795,79.8194872 C173.448119,79.7871992 175.685555,80.2346862 177.755897,81.1323077 L177.755897,73.7805128 C175.956964,72.9264482 173.96392,72.5640764 171.979487,72.7302564 C167.65335,72.7695489 163.750607,75.3371432 162.002051,79.294359 L160.951795,73.5179487 L154.912821,73.5179487 L154.912821,115.790769 L162.789744,115.790769 L162.789744,84.8082051 C162.789744,84.8082051 166.465641,79.8194872 171.191795,79.8194872 M252.061538,73.2553846 L243.134359,73.2553846 L238.145641,97.6738462 C236.832821,103.975385 235.52,112.114872 235.52,112.114872 C235.52,112.114872 233.682051,103.187692 232.106667,97.6738462 L224.754872,73.2553846 L213.202051,73.2553846 L205.850256,97.6738462 C204.274872,103.187692 202.436923,112.114872 202.436923,112.114872 C202.436923,112.114872 201.124103,103.450256 199.811282,97.6738462 L194.56,73.2553846 L185.370256,73.2553846 L196.923077,115.790769 L207.950769,115.790769 L214.514872,93.2102564 C216.090256,87.4338462 218.978462,77.4564103 218.978462,77.4564103 C218.978462,77.4564103 221.604103,87.4338462 223.179487,93.4728205 L229.74359,116.053333 L240.771282,116.053333 L252.061538,73.2553846 Z M262.038974,115.790769 L269.915897,115.790769 L269.915897,72.9928205 L262.038974,72.9928205 L262.038974,115.790769 Z M320.065641,115.790769 L320.065641,86.9087179 C320.065641,76.1435897 314.026667,72.7302564 306.412308,72.7302564 C300.44938,73.1049953 294.795667,75.5147743 290.395897,79.5569231 L288.820513,73.5179487 L282.781538,73.5179487 L282.781538,115.790769 L290.658462,115.790769 L290.658462,84.8082051 C294.707456,81.7775559 299.5326,79.9567471 304.574359,79.5569231 C310.088205,79.5569231 312.188718,81.6574359 312.188718,86.9087179 L312.188718,115.790769 L320.065641,115.790769 Z M367.852308,115.790769 L367.852308,59.3394872 L359.975385,59.3394872 L359.975385,76.6687179 C356.9414,73.7888112 352.863698,72.2715269 348.685128,72.4676923 C342.908718,72.4676923 329.517949,75.0933333 329.517949,94.5230769 C329.517949,113.427692 340.545641,116.578462 347.109744,116.578462 C352.336862,116.718218 357.349936,114.500897 360.763077,110.539487 L361.550769,115.790769 L367.852308,115.790769 Z M359.975385,105.288205 C356.830303,108.097146 352.879559,109.842823 348.685128,110.276923 C343.69641,110.276923 337.394872,108.701538 337.394872,94.5230769 C337.394872,81.1323077 343.433846,79.0317949 349.472821,79.0317949 C353.351614,79.1873951 357.059292,80.6704663 359.975385,83.2328205 L359.975385,105.288205 L359.975385,105.288205 Z M392.533333,116.578462 C401.460513,116.578462 408.549744,113.952821 408.549744,103.712821 C408.549744,95.8358974 402.248205,92.9476923 397.522051,91.6348718 L393.321026,90.5846154 C389.645128,89.534359 386.494359,88.7466667 386.494359,84.8082051 C386.494359,80.3446154 389.907692,79.294359 395.158974,79.294359 C399.319332,79.359168 403.425143,80.2517354 407.236923,81.92 L407.236923,75.3558974 C403.539699,73.6481518 399.491186,72.8384491 395.421538,72.9928205 C387.019487,72.9928205 378.88,75.3558974 378.88,85.3333333 C378.88,94.2605128 386.231795,96.0984615 390.695385,97.4112821 L394.108718,98.4615385 C397.784615,99.5117949 400.672821,100.299487 400.672821,104.500513 C400.672821,109.751795 396.471795,110.539487 392.008205,110.539487 C387.54826,110.154165 383.145073,109.273528 378.88,107.913846 L378.88,114.740513 C379.142564,114.215385 384.65641,116.578462 392.533333,116.578462" fill="#444444"/>
    <path d="M445.833846,47.5241026 C440.057436,49.0994872 434.281026,50.4123077 428.504615,52.2502564 C416.60321,41.5287598 401.630425,34.8231566 385.706667,33.0830769 C409.285414,16.150961 437.548287,6.97470345 466.57641,6.82666667 L456.598974,16.0164103 C456.598974,16.0164103 498.871795,14.4410256 509.374359,0 C509.058321,1.52095267 508.619271,3.01372364 508.061538,4.46358974 C505.053085,13.0417564 499.683251,20.5959291 492.570256,26.2564103 C485.928191,31.4515833 478.593058,35.693588 470.777436,38.8594872 C463.004593,42.250953 455.024063,45.1449911 446.884103,47.5241026 C446.621538,47.2615385 446.09641,47.5241026 445.833846,47.5241026 M512,46.2112821 C485.193186,44.9963044 458.37585,48.3706712 432.705641,56.1887179 C438.129998,61.8497847 442.646895,68.3151468 446.09641,75.3558974 C467.364103,63.5405128 496.771282,48.3117949 512,46.2112821 M448.722051,81.3948718 C451.24827,87.8757772 452.839599,94.6831292 453.448205,101.612308 L490.469744,63.5405128 L448.722051,81.3948718 Z" fill="#F99D1C"/>
  </g>
</svg>

<svg width="512" height="117" xmlns="http://www.w3.org/2000/svg" preserveAspectRatio="xMidYMid"><path d="M13.39 116.578a34.812 34.812 0 0 1-13.127-2.363v-6.826a60.316 60.316 0 0 0 13.128 2.625c4.2 0 8.664-.787 8.664-6.039 0-3.938-2.888-4.988-6.564-6.039l-3.676-.787C7.352 95.836 0 93.998 0 85.07c0-9.978 8.14-12.34 16.542-12.34 4.07-.155 8.118.655 11.815 2.362v6.564a31.341 31.341 0 0 0-12.078-2.625c-5.251 0-8.665 1.05-8.665 5.514 0 3.938 3.151 4.988 6.827 5.776l3.938 1.313c4.99 1.313 11.028 4.2 11.028 12.078.263 9.977-7.09 12.865-16.016 12.865m44.636 0c7.877 0 19.692-2.363 19.692-22.055 0-19.43-12.078-22.055-19.692-22.055-8.14 0-19.693 3.15-19.693 22.055 0 19.43 11.29 22.055 19.693 22.055m0-38.071c4.463 0 11.815 1.05 11.815 16.016 0 14.441-7.877 16.016-11.815 16.016-3.151 0-11.816-1.05-11.816-16.016 0-14.704 7.352-16.016 11.816-16.016m29.932 37.284h7.877V59.339h-7.877v56.452Zm54.35 0V87.17c0-11.027-6.3-14.44-15.753-14.44a48.944 48.944 0 0 0-16.017 2.887v6.565a53.3 53.3 0 0 1 14.704-2.889c5.514 0 8.665 1.313 8.665 6.827v3.676h-9.453c-6.826 0-17.854 2.363-17.854 13.916 0 10.765 7.09 13.128 13.653 13.128a18.697 18.697 0 0 0 13.916-6.302l.788 5.514 7.352-.262Zm-7.876-11.028s-5.777 5.514-11.553 5.514c-4.201 0-7.614-1.575-7.614-7.09 0-6.826 4.2-8.664 11.552-8.926h7.615v10.502Zm36.759-24.944a15.929 15.929 0 0 1 6.564 1.313v-7.351a11.275 11.275 0 0 0-5.777-1.05 11.017 11.017 0 0 0-9.977 6.563l-1.05-5.776h-6.04v42.273h7.878V84.808s3.676-4.989 8.402-4.989m80.87-6.564h-8.928l-4.988 24.419c-1.313 6.301-2.626 14.44-2.626 14.44s-1.838-8.926-3.413-14.44l-7.352-24.419h-11.553l-7.352 24.419c-1.575 5.514-3.413 14.44-3.413 14.44s-1.313-8.664-2.626-14.44l-5.251-24.419h-9.19l11.553 42.536h11.028l6.564-22.58c1.575-5.777 4.463-15.755 4.463-15.755s2.626 9.978 4.201 16.017l6.565 22.58h11.027l11.29-42.798Zm9.977 42.536h7.877V72.993h-7.877v42.798Zm58.027 0V86.909c0-10.765-6.04-14.179-13.654-14.179a26.093 26.093 0 0 0-16.016 6.827l-1.575-6.04h-6.04v42.274h7.877V84.808a26.752 26.752 0 0 1 13.916-5.251c5.514 0 7.615 2.1 7.615 7.352v28.882h7.877Zm47.786 0V59.339h-7.877v17.33a15.354 15.354 0 0 0-11.29-4.201c-5.776 0-19.167 2.625-19.167 22.055 0 18.905 11.028 22.055 17.592 22.055a17.408 17.408 0 0 0 13.653-6.039l.788 5.252h6.301Zm-7.877-10.503a20.047 20.047 0 0 1-11.29 4.989c-4.989 0-11.29-1.575-11.29-15.754 0-13.39 6.039-15.491 12.078-15.491a16.94 16.94 0 0 1 10.502 4.2v22.056Zm32.558 11.29c8.928 0 16.017-2.625 16.017-12.865 0-7.877-6.302-10.765-11.028-12.078l-4.201-1.05c-3.676-1.05-6.827-1.838-6.827-5.777 0-4.463 3.414-5.514 8.665-5.514 4.16.065 8.266.958 12.078 2.626v-6.564a25.841 25.841 0 0 0-11.815-2.363c-8.403 0-16.542 2.363-16.542 12.34 0 8.928 7.352 10.765 11.815 12.078l3.414 1.05c3.676 1.05 6.564 1.838 6.564 6.04 0 5.25-4.201 6.038-8.665 6.038a60.316 60.316 0 0 1-13.128-2.625v6.827c.263-.526 5.776 1.837 13.653 1.837" fill="#444"/><path d="M445.834 47.524c-5.777 1.575-11.553 2.888-17.33 4.726a76.331 76.331 0 0 0-42.797-19.167 139.866 139.866 0 0 1 80.87-26.256l-9.978 9.19S498.872 14.44 509.374 0a28.689 28.689 0 0 1-1.312 4.464 48.265 48.265 0 0 1-15.492 21.792 90.558 90.558 0 0 1-21.793 12.603 200.155 200.155 0 0 1-23.893 8.665c-.262-.262-.788 0-1.05 0M512 46.211a235.56 235.56 0 0 0-79.294 9.978 76.096 76.096 0 0 1 13.39 19.167C467.364 63.54 496.771 48.312 512 46.21m-63.278 35.184a73.336 73.336 0 0 1 4.726 20.217l37.022-38.071-41.748 17.854Z" fill="#F99D1C"/></svg>
